**kern	**kern
*clefF4	*clefG2
*k[]	*k[]
*M4/4	*M4/4
*MM56	*MM56
=1	=1
4C	2..ee
4E	.
4G	.
4E	.
.	8ff
=2	=2
4BB	2dd
4D	.
4G	4r
4D	8ee
.	8ff
=3	=3
4AA	2gg
4C	.
4E	8gg
.	8aa
4C	4ff
=4	=4
4GG	8ff
.	8ee
4BB	2dd
4D	.
4BB	4cc
=5	=5
4FF	4cc
4AA	4b
4C	4a
4AA	4b
=6	=6
4GG	8b
.	8cc
4BB	2a
4D	.
4BB	4g
=7	=7
4EE	2g
4GG	.
4C	4r
4GG	4cc
=8	=8
4C	4.cc
4GG	.
.	8dd
4E	4.ee
4GG	.
.	8ff
=9	=9
4AA	4ee
4C	4dd
4E	4cc
4C	4b
=10	=10
4GG	2a
4BB	.
4D	4b
4BB	4cc
=11	=11
4FF	2dd
4AA	.
4C	2g
4AA	.
=12	=12
4GG	4.ee
4BB	.
.	8ff
4D	2gg
4GG	.
=13	=13
4C	4ff
4E	4ee
4G	4.dd
4E	.
.	8cc
=14	=14
4FF	4b
4AA	4a
4C	4g
4AA	4cc
=15	=15
4GG	4cc
4GG	4b
4BB	2cc
4D	.
=16	=16
4C	2cc
4GG	.
4E	2ee
4C	.
=17	=17
4C	4.ee
4E	.
.	8ff
4G	2dd
4E	.
=18	=18
4BB	4r
4D	8ee
.	8ff
4G	2gg
4D	.
=19	=19
4AA	8gg
.	8aa
4C	4.ff
4E	.
.	8ee
4C	4dd
=20	=20
4GG	4dd
4BB	2cc
4D	.
4BB	4b
=21	=21
4FF	4a
4AA	4.b
4C	.
.	8cc
4AA	4a
=22	=22
4GG	4a
4BB	2.g
4D	.
4BB	.
=23	=23
4EE	4r
4GG	2cc
4C	.
4GG	8cc
.	8dd
=24	=24
4C	4.ee
4GG	.
.	8ff
4E	4ee
4GG	4dd
=25	=25
4AA	4cc
4C	4b
4E	2a
4C	.
=26	=26
4GG	4b
4BB	4cc
4D	2dd
4BB	.
=27	=27
4FF	2g
4AA	.
4C	4.ee
4AA	.
.	8ff
=28	=28
4GG	2gg
4BB	.
4D	4ff
4GG	4ee
=29	=29
4C	4.dd
4E	.
.	8cc
4G	4b
4E	4a
=30	=30
4FF	4g
4AA	2cc
4C	.
4AA	4b
=31	=31
4GG	1cc
4GG	.
4BB	.
4D	.
=32	=32
4C	1r
4GG	.
4E	.
4C	.
==	==
*-	*-
